round/svg/settings_power.svg

<svg xmlns="http://www.w3.org/2000/svg" width="24" height="24"><path fill="none" d="M0 0h24v24H0V0z"/><path d="M7 24h2v-2H7v2zm4 0h2v-2h-2v2zm1-22c-.55 0-1 .45-1 1v8c0 .55.45 1 1 1s1-.45 1-1V3c0-.55-.45-1-1-1zm3.94 3.06l-.02.02c-.41.41-.36 1.08.08 1.46 1.51 1.34 2.33 3.43 1.88 5.7-.46 2.28-2.29 4.14-4.56 4.62A6.01 6.01 0 0 1 6 11c0-1.78.78-3.37 2.01-4.47.43-.39.47-1.04.07-1.45l-.02-.02a.991.991 0 0 0-1.36-.04c-2.01 1.77-3.12 4.53-2.56 7.52.59 3.15 3.11 5.7 6.26 6.31 5.12.99 9.6-2.9 9.6-7.85 0-2.38-1.05-4.52-2.71-5.99a.99.99 0 0 0-1.35.05zM15 24h2v-2h-2v2z" fill="currentColor"/></svg>

<?xml version="1.0" encoding="utf-8"?>
<!-- Generator: Adobe Illustrator 19.1.0, SVG Export Plug-In . SVG Version: 6.00 Build 0)  -->
<svg version="1.1" xmlns="http://www.w3.org/2000/svg" xmlns:xlink="http://www.w3.org/1999/xlink" x="0px" y="0px" width="24px"
	 height="24px" viewBox="0 0 24 24" enable-background="new 0 0 24 24" xml:space="preserve">
<g id="Header_x2F_BG" display="none">
	<rect x="-138" y="-402" display="inline" fill="#F1F1F2" width="520" height="520"/>
</g>
<g id="Bounding_Boxes">
	<g id="ui_x5F_spec_x5F_header_copy_3" display="none">
	</g>
	<path fill="none" d="M0,0h24v24H0V0z"/>
</g>
<g id="Rounded" fill="currentColor">
	<g id="ui_x5F_spec_x5F_header_copy_5" display="none">
	</g>
	<path d="M7,24h2v-2H7V24z M11,24h2v-2h-2V24z M12,2L12,2c-0.55,0-1,0.45-1,1v8c0,0.55,0.45,1,1,1h0c0.55,0,1-0.45,1-1V3
		C13,2.45,12.55,2,12,2z M15.94,5.06l-0.02,0.02C15.51,5.49,15.56,6.16,16,6.54c1.51,1.34,2.33,3.43,1.88,5.7
		c-0.46,2.28-2.29,4.14-4.56,4.62C9.43,17.69,6,14.74,6,11c0-1.78,0.78-3.37,2.01-4.47c0.43-0.39,0.47-1.04,0.07-1.45L8.06,5.06
		C7.69,4.69,7.1,4.67,6.7,5.02c-2.01,1.77-3.12,4.53-2.56,7.52c0.59,3.15,3.11,5.7,6.26,6.31c5.12,0.99,9.6-2.9,9.6-7.85
		c0-2.38-1.05-4.52-2.71-5.99C16.9,4.67,16.31,4.69,15.94,5.06z M15,24h2v-2h-2V24z"/>
</g>
<g id="Sharp" display="none">
	<g id="ui_x5F_spec_x5F_header_copy_4">
	</g>
	<path display="inline" d="M7,24h2v-2H7V24z M11,24h2v-2h-2V24z M13,2h-2v10h2V2z M16.56,4.44l-1.45,1.45C16.84,6.94,18,8.83,18,11
		c0,3.31-2.69,6-6,6s-6-2.69-6-6c0-2.17,1.16-4.06,2.88-5.12L7.44,4.44C5.36,5.88,4,8.28,4,11c0,4.42,3.58,8,8,8s8-3.58,8-8
		C20,8.28,18.64,5.88,16.56,4.44z M15,24h2v-2h-2V24z"/>
</g>
<g id="Outline" display="none">
	<g id="ui_x5F_spec_x5F_header">
	</g>
	<path display="inline" d="M7,24h2v-2H7V24z M11,24h2v-2h-2V24z M13,2h-2v10h2V2z M16.56,4.44l-1.45,1.45C16.84,6.94,18,8.83,18,11
		c0,3.31-2.69,6-6,6s-6-2.69-6-6c0-2.17,1.16-4.06,2.88-5.12L7.44,4.44C5.36,5.88,4,8.28,4,11c0,4.42,3.58,8,8,8s8-3.58,8-8
		C20,8.28,18.64,5.88,16.56,4.44z M15,24h2v-2h-2V24z"/>
</g>
<g id="Duotone" display="none">
	<g id="ui_x5F_spec_x5F_header_copy_2">
	</g>
	<path display="inline" d="M7,24h2v-2H7V24z M11,24h2v-2h-2V24z M13,2h-2v10h2V2z M16.56,4.44l-1.45,1.45C16.84,6.94,18,8.83,18,11
		c0,3.31-2.69,6-6,6s-6-2.69-6-6c0-2.17,1.16-4.06,2.88-5.12L7.44,4.44C5.36,5.88,4,8.28,4,11c0,4.42,3.58,8,8,8s8-3.58,8-8
		C20,8.28,18.64,5.88,16.56,4.44z M15,24h2v-2h-2V24z"/>
</g>
<g id="Material" display="none">
	<g id="ui_x5F_spec_x5F_header_copy">
	</g>
	<path display="inline" d="M7,24h2v-2H7V24z M11,24h2v-2h-2V24z M13,2h-2v10h2V2z M16.56,4.44l-1.45,1.45C16.84,6.94,18,8.83,18,11
		c0,3.31-2.69,6-6,6s-6-2.69-6-6c0-2.17,1.16-4.06,2.88-5.12L7.44,4.44C5.36,5.88,4,8.28,4,11c0,4.42,3.58,8,8,8s8-3.58,8-8
		C20,8.28,18.64,5.88,16.56,4.44z M15,24h2v-2h-2V24z"/>
</g>
</svg>
